oferta/euskaltel/tarifa-3/img/section-deco/icons-indicators-mid-render-icons-prepare.svg

<svg xmlns="http://www.w3.org/2000/svg" width="44" height="44" viewBox="0 0 44 44"><g fill="none" fill-rule="evenodd"><path stroke="#666" stroke-linejoin="round" d="M12.578 12.52a2.796 2.796 0 013.954 0l20.67 20.671a2.796 2.796 0 11-3.954 3.954l-20.67-20.67a2.796 2.796 0 010-3.954z"/><path stroke="#666" stroke-linecap="round" stroke-linejoin="round" d="M21.599 6.76v3.839m-1.891-1.92h3.782M13.305 24.383v7.242M9.74 28.004h7.131"/><circle cx="30.225" cy="14.208" r="4.583" stroke="#E60000" stroke-linecap="round"/><circle cx="37.62" cy="10.054" r="1" fill="#666" fill-rule="nonzero"/><circle cx="8.25" cy="17.417" r="1" fill="#666" fill-rule="nonzero"/><circle cx="7.333" cy="10.97" r="1.833" fill="#E60000" fill-rule="nonzero"/><circle cx="19.22" cy="33.887" r="1" fill="#666" fill-rule="nonzero"/><path stroke="#666" stroke-linejoin="round" d="M21.118 16.878l-4.27 4.27m15.9 7.468l-4.162 4.162"/><path d="M0 0h44v44H0z"/></g></svg>

<svg xmlns="http://www.w3.org/2000/svg" width="44" height="44" viewBox="0 0 44 44">
    <g fill="none" fill-rule="evenodd">
        <g>
            <g>
                <g>
                    <g>
                        <g>
                            <g transform="translate(-449.000000, -3404.000000) translate(20.000000, 2546.000000) translate(0.000000, 750.000000) translate(419.000000, 96.000000) translate(0.000000, 2.000000) translate(10.000000, 10.000000)">
                                <path stroke="#666" stroke-linejoin="round" d="M24.89 7.421c1.544 0 2.796 1.252 2.796 2.796v29.232c0 1.545-1.252 2.796-2.796 2.796-1.544 0-2.796-1.251-2.796-2.796V10.217c0-1.544 1.252-2.796 2.796-2.796z" transform="translate(24.890011, 24.833239) rotate(-45.000000) translate(-24.890011, -24.833239)"/>
                                <path stroke="#666" stroke-linecap="round" stroke-linejoin="round" d="M21.599 6.76L21.599 10.599M19.708 8.679L23.49 8.679M13.305 24.383L13.305 31.625M9.74 28.004L16.871 28.004"/>
                                <circle cx="30.225" cy="14.208" r="4.583" stroke="#E60000" stroke-linecap="round"/>
                                <circle cx="37.62" cy="10.054" r="1" fill="#666" fill-rule="nonzero"/>
                                <circle cx="8.25" cy="17.417" r="1" fill="#666" fill-rule="nonzero"/>
                                <circle cx="7.333" cy="10.97" r="1.833" fill="#E60000" fill-rule="nonzero"/>
                                <circle cx="19.22" cy="33.887" r="1" fill="#666" fill-rule="nonzero"/>
                                <path stroke="#666" stroke-linejoin="round" d="M21.118 16.878L16.848 21.148M32.748 28.616L28.586 32.778"/>
                                <path d="M0 0H44V44H0z"/>
                            </g>
                        </g>
                    </g>
                </g>
            </g>
        </g>
    </g>
</svg>
